src/assets/duotone/CallSlash.svg

<svg width="24" height="24" viewBox="0 0 24 24"  xmlns="http://www.w3.org/2000/svg">
<path d="M22.0001 18.33C22.0001 18.69 21.9201 19.06 21.7501 19.42C21.5801 19.78 21.3601 20.12 21.0701 20.44C20.5801 20.98 20.0401 21.37 19.4301 21.62C18.8301 21.87 18.1701 22 17.4701 22C16.4501 22 15.3601 21.76 14.2101 21.27C13.0601 20.78 11.9001 20.12 10.7601 19.29C10.1801 18.86 9.61006 18.42 9.06006 17.94L12.3201 14.68C12.3301 14.68 12.3301 14.68 12.3401 14.69C12.8601 15.13 13.2901 15.43 13.6301 15.61C13.6801 15.63 13.7401 15.66 13.8101 15.69C13.8901 15.72 13.9701 15.73 14.0601 15.73C14.2301 15.73 14.3601 15.67 14.4701 15.56L15.2301 14.81C15.4801 14.56 15.7201 14.37 15.9501 14.25C16.1801 14.11 16.4101 14.04 16.6601 14.04C16.8501 14.04 17.0501 14.08 17.2701 14.17C17.4901 14.26 17.7201 14.39 17.9701 14.56L21.2901 16.91C21.5501 17.09 21.7301 17.3 21.8401 17.55C21.9401 17.8 22.0001 18.05 22.0001 18.33Z" />
<path opacity="0.4" d="M10.76 13.24L7.5 16.5C7.49 16.5 7.49 16.5 7.48 16.49C6.45 15.45 5.52 14.36 4.68 13.22C3.87 12.1 3.22 10.97 2.74 9.86C2.73 9.84 2.73 9.83 2.72 9.81C2.24 8.67 2 7.58 2 6.54C2 5.86 2.12 5.21 2.36 4.61C2.56 4.1 2.86 3.62 3.27 3.19C3.34 3.11 3.42 3.02 3.51 2.94C3.67 2.78 3.83 2.64 4 2.53C4.01 2.53 4.01 2.53 4.01 2.53C4.51 2.17 5.04 2 5.6 2C5.88 2 6.16 2.06 6.41 2.18C6.65 2.29 6.86 2.45 7.03 2.68C7.05 2.7 7.06 2.72 7.08 2.74L9.4 6.01C9.58 6.26 9.71 6.49 9.8 6.71C9.89 6.92 9.94 7.13 9.94 7.32C9.94 7.56 9.87 7.8 9.73 8.03C9.6 8.26 9.41 8.5 9.17 8.74L8.41 9.53C8.3 9.64 8.25 9.77 8.25 9.93C8.25 10.01 8.26 10.08 8.28 10.16C8.31 10.24 8.34 10.3 8.36 10.36C8.54 10.69 8.85 11.12 9.29 11.64C9.74 12.16 10.22 12.69 10.74 13.22C10.75 13.23 10.75 13.23 10.76 13.24Z" />
<path d="M21.7699 2.22988C21.4699 1.92988 20.9799 1.92988 20.6799 2.22988L2.22988 20.6899C1.92988 20.9899 1.92988 21.4799 2.22988 21.7799C2.37988 21.9199 2.56988 21.9999 2.76988 21.9999C2.96988 21.9999 3.15988 21.9199 3.30988 21.7699L21.7699 3.30988C22.0799 3.00988 22.0799 2.52988 21.7699 2.22988Z" />
</svg>

<?xml version="1.0" encoding="UTF-8"?>
<svg width="24" height="24" viewBox="0 0 24 24" xmlns="http://www.w3.org/2000/svg">
 <path d="m22 18.33c0 0.36-0.08 0.73-0.25 1.09s-0.39 0.7-0.68 1.02c-0.49 0.54-1.03 0.93-1.64 1.18-0.6 0.25-1.26 0.38-1.96 0.38-1.02 0-2.11-0.24-3.26-0.73s-2.31-1.15-3.45-1.98c-0.58-0.43-1.15-0.87-1.7-1.35l3.26-3.26c0.01 0 0.01 0 0.02 0.01 0.52 0.44 0.95 0.74 1.29 0.92 0.05 0.02 0.11 0.05 0.18 0.08 0.08 0.03 0.16 0.04 0.25 0.04 0.17 0 0.3-0.06 0.41-0.17l0.76-0.75c0.25-0.25 0.49-0.44 0.72-0.56 0.23-0.14 0.46-0.21 0.71-0.21 0.19 0 0.39 0.04 0.61 0.13s0.45 0.22 0.7 0.39l3.32 2.35c0.26 0.18 0.44 0.39 0.55 0.64 0.1 0.25 0.16 0.5 0.16 0.78z"/>
 <path d="m10.76 13.24-3.26 3.26c-0.01 0-0.01 0-0.02-0.01-1.03-1.04-1.96-2.13-2.8-3.27-0.81-1.12-1.46-2.25-1.94-3.36-0.01-0.02-0.01-0.03-0.02-0.05-0.48-1.14-0.72-2.23-0.72-3.27 0-0.68 0.12-1.33 0.36-1.93 0.2-0.51 0.5-0.99 0.91-1.42 0.07-0.08 0.15-0.17 0.24-0.25 0.16-0.16 0.32-0.3 0.49-0.41h0.01c0.5-0.36 1.03-0.53 1.59-0.53 0.28 0 0.56 0.06 0.81 0.18 0.24 0.11 0.45 0.27 0.62 0.5 0.02 0.02 0.03 0.04 0.05 0.06l2.32 3.27c0.18 0.25 0.31 0.48 0.4 0.7 0.09 0.21 0.14 0.42 0.14 0.61 0 0.24-0.07 0.48-0.21 0.71-0.13 0.23-0.32 0.47-0.56 0.71l-0.76 0.79c-0.11 0.11-0.16 0.24-0.16 0.4 0 0.08 0.01 0.15 0.03 0.23 0.03 0.08 0.06 0.14 0.08 0.2 0.18 0.33 0.49 0.76 0.93 1.28 0.45 0.52 0.93 1.05 1.45 1.58l0.02 0.02z" opacity=".4"/>
 <path d="m21.77 2.2299c-0.3-0.3-0.79-0.3-1.09 0l-18.45 18.46c-0.3 0.3-0.3 0.79 0 1.09 0.15 0.14 0.34 0.22 0.54 0.22s0.39-0.08 0.54-0.23l18.46-18.46c0.31-0.3 0.31-0.78 0-1.08z"/>
</svg>
